X: 5
T: Quantas sabedes amar amigo.
F:https://en.wikipedia.org/wiki/Martin_Codax
F:https://es.wikisource.org/wiki/Archivo:Martim_Codax_Cantigas_de_Amigo.jpg
Z:Ali Corbin <ali.corbin:gmail.com>
N: 
M: 3/4
L: 1/4
Q: 1/4=120
K: G Mixolydian
V:1
%Staff 1
%%MIDI program 74
%
    A | c  c2|c2  B |A  c2|(B/c/) (B/A/A/G/)| G2 
w:Quan-tas sa-be-des a-mar  a-*    mi-***     go. 
    A | c  c2|(d/c/c/B/) B|A   c2|(B/c/) (B/A/A/G/)|G2 
w:Trei-des co- mig'***   a-lo mar  de*    vi-***    go. 		
  G|(B/A/A/G/) (G/F/)| G (A/B/) c |(B/c/) (B/A/A/G/)|G3 ||
w:E  ban-***    nar*  nos e-*  mos nas*    on-***   das. 		
%
W:Quantas sabedes amar amigo. 		% How.much you.know to.love friend.
W:Treides comig' a lo mar de Vigo. 	% come with.me to the sea of Vigo 
W:E bannar nos emos nas ondas. 		% and to.bathe us in.them in.the waves 
W:
W:Quantas sabedes d'amor amado. 	% How.much you.know of love beloved
W:treides comig' alo mar levado. 	% come with.me to.the sea arisen 
W:e bannar nos emos nas ondas. 		% and to.bathe us in.them in.the waves 
W:
W:Treides comig' a lo mar de Vigo. 	% Come with.me to.the sea of Vigo 
W:e veeremo-lo meu amigo.		% and we.will.see my own friend
W:e bannar nos emos nas ondas.		% and to.bathe us in.them in.the waves 
W:
W:Treides comig' a lo mar levado. 	% Come with.me to the sea arisen
W:e veeremo-lo meu amado		% and we.will.see my own beloved 
W:e bannar nos emos nas ondas.		% and to.bathe us in.them in.the waves 
W:
W:
W:


